web/images/bullet-train-black.svg

<svg height="41" viewBox="0 0 317 41" width="317" xmlns="http://www.w3.org/2000/svg" xmlns:xlink="http://www.w3.org/1999/xlink"><linearGradient id="a" x1="100%" x2="0%" y1="50%" y2="50%"><stop offset="0" stop-color="#2ca69d"/><stop offset="1" stop-color="#2be3d6"/></linearGradient><g fill="none" fill-rule="evenodd" transform="translate(2 1.552846)"><path d="m120.455 28.425752c0 1.2750064-.254997 2.3941619-.765 3.3575-.510003.9633382-1.211246 1.7708301-2.10375 2.4225-.892504.65167-1.926661 1.1474983-3.1025 1.4875s-2.429577.51-3.76125.51h-14.5775v-30.17499997h16.15c1.048339 0 1.997496.2266644 2.8475.68s1.572497 1.04124639 2.1675 1.76375c.595003.72250362 1.055415 1.54416207 1.38125 2.46499997.325835.920838.48875 1.8487454.48875 2.78375 0 1.4733407-.36833 2.8545769-1.105 4.14375s-1.813326 2.2454136-3.23 2.86875c1.728342.5100026 3.095412 1.4237434 4.10125 2.74125s1.50875 2.9679068 1.50875 4.95125zm-5.9075-1.105c0-.538336-.092082-1.0554142-.27625-1.55125s-.432082-.9279148-.74375-1.29625c-.311668-.3683351-.679998-.6587489-1.105-.87125-.425002-.212501-.892497-.31875-1.4025-.31875h-9.01v7.9475h8.7125c.538336 0 1.041248-.0991656 1.50875-.2975.467502-.1983343.871248-.4745815 1.21125-.82875.340002-.3541684.609166-.7720809.8075-1.25375.198334-.481669.2975-.9916639.2975-1.53zm-12.5375-16.2775v7.6075h7.82c.991672 0 1.83458-.3399966 2.52875-1.02s1.04125-1.614994 1.04125-2.805c0-1.1616724-.318747-2.0824966-.95625-2.7625s-1.423745-1.02-2.35875-1.02zm28.628653 25.585c-2.295011 0-4.037494-.7366593-5.2275-2.21-1.190005-1.4733407-1.785-3.6549855-1.785-6.545v-13.94h5.695v12.7075c0 3.4283505 1.232488 5.1425 3.6975 5.1425 1.105006 0 2.174579-.3329133 3.20875-.99875 1.034172-.6658366 1.877081-1.6787432 2.52875-3.03875v-13.8125h5.695v15.725c0 .595003.106249 1.0199988.31875 1.275.212502.2550013.559581.3966666 1.04125.425v4.845c-.566669.1133339-1.041248.1841666-1.42375.2125-.382501.0283335-.729581.0425-1.04125.0425-1.020005 0-1.848746-.2337476-2.48625-.70125-.637503-.4675023-1.012916-1.1120792-1.12625-1.93375l-.1275-1.785c-.991671 1.5300077-2.266658 2.6774962-3.825 3.4425-1.558341.7650039-3.27249 1.1475-5.1425 1.1475zm18.768654-31.44999997h5.695v23.88499997c0 .8216708.198331 1.4591644.595 1.9125s.96333.68 1.7.68c.340002 0 .715415-.0566661 1.12625-.17s.800415-.2549991 1.16875-.425l.765 4.335c-.765004.3683352-1.657495.6516657-2.6775.85-1.020005.1983344-1.940829.2975-2.7625.2975-1.785009 0-3.166245-.4745786-4.14375-1.42375s-1.46625-2.3020745-1.46625-4.05875zm12.818653 0h5.695v23.88499997c0 .8216708.198332 1.4591644.595 1.9125.396669.4533356.96333.68 1.7.68.340002 0 .715415-.0566661 1.12625-.17.410836-.1133339.800415-.2549991 1.16875-.425l.765 4.335c-.765003.3683352-1.657494.6516657-2.6775.85-1.020005.1983344-1.940829.2975-2.7625.2975-1.785008 0-3.166245-.4745786-4.14375-1.42375-.977504-.9491714-1.46625-2.3020745-1.46625-4.05875zm23.188654 31.44999997c-1.785009 0-3.399993-.3045803-4.845-.91375s-2.677495-1.4379114-3.6975-2.48625c-1.020005-1.0483385-1.806247-2.2666597-2.35875-3.655-.552503-1.3883402-.82875-2.8474923-.82875-4.3775 0-1.5866746.269164-3.081243.8075-4.48375s1.317495-2.6349947 2.3375-3.6975 2.259576-1.9054135 3.71875-2.52875c1.459174-.6233364 3.095408-.935 4.90875-.935s3.43541.3116636 4.86625.935c1.43084.6233365 2.649162 1.4591615 3.655 2.5075 1.005838 1.0483386 1.770831 2.2666598 2.295 3.655.524169 1.3883403.78625 2.8333259.78625 4.335 0 .3683352-.007083.7224983-.02125 1.0625s-.049583.6233322-.10625.85h-17.2125c.085.8783378.297498 1.6574966.6375 2.3375s.779164 1.260831 1.3175 1.7425c.538336.4816691 1.147497.8499988 1.8275 1.105.680003.2550013 1.38833.3825 2.125.3825 1.133339 0 2.202912-.2762472 3.20875-.82875 1.005838-.5525027 1.692915-1.2820788 2.06125-2.18875l4.8875 1.36c-.821671 1.7000085-2.132074 3.0954112-3.93125 4.18625s-3.945404 1.63625-6.43875 1.63625zm5.78-13.43c-.141667-1.671675-.757911-3.0104116-1.84875-4.01625-1.090839-1.0058383-2.415409-1.50875-3.97375-1.50875-.765004 0-1.480413.134582-2.14625.40375s-1.253747.644581-1.76375 1.12625c-.510003.4816691-.927915 1.0624966-1.25375 1.7425s-.517083 1.4308293-.57375 2.2525zm21.871153 11.8575c-.765003.3400017-1.699994.6799983-2.805 1.02-1.105005.3400017-2.26666.51-3.485.51-.793337 0-1.537079-.0991656-2.23125-.2975-.69417-.1983343-1.30333-.5170811-1.8275-.95625-.524169-.4391688-.942081-1.0058298-1.25375-1.7-.311668-.6941701-.4675-1.5370783-.4675-2.52875v-12.7925h-2.9325v-4.3775h2.9325v-7.22499997h5.695v7.22499997h4.675v4.3775h-4.675v10.88c0 .7933373.205415 1.3529151.61625 1.67875.410836.325835.913748.48875 1.50875.48875.595003 0 1.175831-.0991656 1.7425-.2975.56667-.1983343 1.019999-.3683326 1.36-.51zm33.797307-23.885h-9.6475v25.0325h-5.8225v-25.0325h-9.6475v-5.14249997h25.1175zm11.118654 7.6925c-1.728342.0283335-3.272493.3612468-4.6325.99875s-2.337497 1.5937437-2.9325 2.86875v13.4725h-5.695v-22.27h5.2275v4.76c.396669-.7650038.864164-1.4520803 1.4025-2.06125s1.119164-1.1404144 1.7425-1.59375 1.253747-.8004154 1.89125-1.04125c.637503-.2408345 1.253747-.36125 1.84875-.36125h.70125c.155834 0 .304583.0141666.44625.0425zm8.313653 17.765c-1.076672 0-2.082495-.1770815-3.0175-.53125-.935004-.3541684-1.742496-.8499968-2.4225-1.4875-.680003-.6375032-1.211248-1.3812457-1.59375-2.23125-.382501-.8500042-.57375-1.7849949-.57375-2.805 0-1.0483385.233748-2.0187455.70125-2.91125.467503-.8925044 1.119163-1.6504135 1.955-2.27375.835838-.6233364 1.834578-1.1120815 2.99625-1.46625 1.161673-.3541684 2.43666-.53125 3.825-.53125.991672 0 1.962079.0849992 2.91125.255.949172.1700009 1.79208.4108318 2.52875.7225v-1.275c0-1.4733407-.417912-2.6066627-1.25375-3.4-.835837-.7933373-2.075408-1.19-3.71875-1.19-1.190005 0-2.351661.2124979-3.485.6375-1.133339.4250022-2.294994 1.0483293-3.485 1.87l-1.7425-3.6125c2.861681-1.8983428 5.949984-2.8475 9.265-2.8475 3.201683 0 5.687908.7862422 7.45875 2.35875 1.770843 1.5725079 2.65625 3.8462352 2.65625 6.82125v6.9275c0 .595003.106249 1.0199988.31875 1.275.212502.2550013.559581.3966666 1.04125.425v4.845c-.963338.1983344-1.799163.2975-2.5075.2975-1.076672 0-1.905413-.2408309-2.48625-.7225-.580836-.481669-.942082-1.1191627-1.08375-1.9125l-.1275-1.2325c-.991671 1.3033399-2.195826 2.2949966-3.6125 2.975-1.416673.6800034-2.932491 1.02-4.5475 1.02zm1.615-4.165c.963339 0 1.877079-.1699983 2.74125-.51s1.537081-.7933305 2.01875-1.36c.623337-.481669.935-1.019997.935-1.615v-2.55c-.680003-.2550012-1.416662-.4604159-2.21-.61625-.793337-.1558341-1.558329-.23375-2.295-.23375-1.47334 0-2.677495.3329134-3.6125.99875-.935004.6658367-1.4025 1.5087449-1.4025 2.52875 0 .9633382.36833 1.7637468 1.105 2.40125.736671.6375032 1.643328.95625 2.72.95625zm16.048654 3.74v-22.27h5.695v22.27zm0-25.3725v-5.65249997h5.695v5.65249997zm30.881153 25.3725h-5.695v-12.495c0-1.7850089-.311663-3.0883292-.935-3.91-.623336-.8216707-1.487494-1.2325-2.5925-1.2325-.566669 0-1.147497.1133322-1.7425.34s-1.15458.5454146-1.67875.95625c-.524169.4108354-.998747.8995805-1.42375 1.46625-.425002.5666695-.736665 1.1899966-.935 1.87v13.005h-5.695v-22.27h5.1425v4.1225c.821671-1.4166737 2.011659-2.5216627 3.57-3.315 1.558342-.7933373 3.314991-1.19 5.27-1.19 1.388341 0 2.521663.2549975 3.4.765.878338.5100026 1.558331 1.1758293 2.04 1.9975.48167.8216708.814583 1.7566615.99875 2.805.184168 1.0483386.27625 2.110828.27625 3.1875z" fill="#333"/><g stroke-width="3.12" transform="translate(0 .03252)"><g stroke="url(#a)"><path d="m78.1984701 15.911877c-1.3626066-2.5263619-6.932384-2.5263619-16.7093321 0-.6029065.155791-3.2616597-5.0908702-2.9862459-5.8089829.7971684-2.07853315 12.4588438-1.15094452 14.8250452-.5622456 1.9845108.4937362-.4911872-.94281552-7.4270938-4.30965523l.000001-.000002c-1.3128518-.63728678-2.340102-1.74226042-2.8801128-3.09802685-1.1708904-2.93967067-5.7490251-2.840731-13.734404.296819-9.2295104 3.62638406-24.9212232 9.70122188-47.07513815 18.22451348l.00000125.0000033c-.79281112.3050188-1.38015139.9868563-1.56439962 1.816096l-.52917158 2.3816245c-.09343658.4205268.17172246.8371765.59224931.9306131.12544441.0278724.25583202.02432.37957268-.0103415l15.53739741-4.3522436c.4148154-.1161956.8452849.1258836.9614805.5406989.0191834.0684843.0289103.1392705.0289103.2103908v3.1650404c0 .4594198-.3207151.8565062-.7698499.9531729l-16.38538976 3.5266052c-.31585369.0679807-.5167944.37914-.44881364.6949937.00376357.0174864.00832715.034791.01367635.0518592l1.51198336 4.824431c.35684664 1.1386249 1.41182741 1.9135702 2.60506095 1.9135702l67.18788254.0000075c6.2690738 0 11.418586-4.9520831 11.6635424-11.2163693.1030318-2.634838-1.4959189-6.0256954-4.796852-10.1725722z"/><path d="m71.3372365 32.6137999c4.9769485-1.672871 6.9672262-4.6673516 5.9708331-8.9834419" stroke-linecap="round"/><path d="m23.4366039 24.36696 22.2357436-4.8631836c1.3349958-.2919774 2.5191046-1.0574986 3.3333393-2.1549895 1.1841938-1.5961513 1.7595094-2.9176631 1.7259467-3.9645353-.0418827-1.3063882-1.0316147-2.1750031-2.9691961-2.6058449l-.0000027.0000123c-.2875521-.0639403-.5873316-.0451569-.8646533.0541769l-21.1394866 7.571945c-1.5253114.5463507-2.6118194 1.9065687-2.807616 3.5149026l-.2197786 1.80533c-.0390439.3207188.1892987.612364.5100174.6514079.0652834.0079475.1314396.00483.1956863-.0092214z"/></g><path d="m63.5620609 14.2563317 4.2763466-4.29642875" stroke="#2cb6ac" stroke-linecap="round"/><path d="m69.7808447 14.0934891 4.1142652-4.13358615" stroke="#2bada3" stroke-linecap="round"/></g></g></svg>

<?xml version="1.0" encoding="UTF-8"?>
<svg width="317px" height="41px" viewBox="0 0 317 41" version="1.1" xmlns="http://www.w3.org/2000/svg" xmlns:xlink="http://www.w3.org/1999/xlink">
    <!-- Generator: Sketch 50.2 (55047) - http://www.bohemiancoding.com/sketch -->
    <title>Group</title>
    <desc>Created with Sketch.</desc>
    <defs>
        <linearGradient x1="100%" y1="50%" x2="0%" y2="50%" id="linearGradient-1">
            <stop stop-color="#2CA69D" offset="0%"></stop>
            <stop stop-color="#2BE3D6" offset="100%"></stop>
        </linearGradient>
    </defs>
    <g id="Page-1" stroke="none" stroke-width="1" fill="none" fill-rule="evenodd">
        <g id="bullet-train-copy-8" transform="translate(-340.000000, -381.000000)">
            <g id="bullet-train-1" transform="translate(342.000000, 372.000000)">
                <g id="Group" transform="translate(0.000000, 10.552846)">
                    <path d="M120.455,28.425752 C120.455,29.7007584 120.200003,30.8199139 119.69,31.783252 C119.179997,32.7465902 118.478754,33.5540821 117.58625,34.205752 C116.693746,34.857422 115.659589,35.3532503 114.48375,35.693252 C113.307911,36.0332537 112.054173,36.203252 110.7225,36.203252 L96.145,36.203252 L96.145,6.02825203 L112.295,6.02825203 C113.343339,6.02825203 114.292496,6.25491643 115.1425,6.70825203 C115.992504,7.16158763 116.714997,7.74949842 117.31,8.47200203 C117.905003,9.19450565 118.365415,10.0161641 118.69125,10.937002 C119.017085,11.85784 119.18,12.7857474 119.18,13.720752 C119.18,15.1940927 118.81167,16.5753289 118.075,17.864502 C117.33833,19.1536751 116.261674,20.1099156 114.845,20.733252 C116.573342,21.2432546 117.940412,22.1569954 118.94625,23.474502 C119.952088,24.7920086 120.455,26.4424088 120.455,28.425752 Z M114.5475,27.320752 C114.5475,26.782416 114.455418,26.2653378 114.27125,25.769502 C114.087082,25.2736662 113.839168,24.8415872 113.5275,24.473252 C113.215832,24.1049169 112.847502,23.8145031 112.4225,23.602002 C111.997498,23.389501 111.530003,23.283252 111.02,23.283252 L102.01,23.283252 L102.01,31.230752 L110.7225,31.230752 C111.260836,31.230752 111.763748,31.1315864 112.23125,30.933252 C112.698752,30.7349177 113.102498,30.4586705 113.4425,30.104502 C113.782502,29.7503336 114.051666,29.3324211 114.25,28.850752 C114.448334,28.369083 114.5475,27.8590881 114.5475,27.320752 Z M102.01,11.043252 L102.01,18.650752 L109.83,18.650752 C110.821672,18.650752 111.66458,18.3107554 112.35875,17.630752 C113.05292,16.9507486 113.4,16.015758 113.4,14.825752 C113.4,13.6640796 113.081253,12.7432554 112.44375,12.063252 C111.806247,11.3832486 111.020005,11.043252 110.085,11.043252 L102.01,11.043252 Z M130.638653,36.628252 C128.343642,36.628252 126.601159,35.8915927 125.411153,34.418252 C124.221148,32.9449113 123.626153,30.7632665 123.626153,27.873252 L123.626153,13.933252 L129.321153,13.933252 L129.321153,26.640752 C129.321153,30.0691025 130.553641,31.783252 133.018653,31.783252 C134.123659,31.783252 135.193232,31.4503387 136.227403,30.784502 C137.261575,30.1186654 138.104484,29.1057588 138.756153,27.745752 L138.756153,13.933252 L144.451153,13.933252 L144.451153,29.658252 C144.451153,30.253255 144.557402,30.6782508 144.769903,30.933252 C144.982405,31.1882533 145.329484,31.3299186 145.811153,31.358252 L145.811153,36.203252 C145.244484,36.3165859 144.769905,36.3874186 144.387403,36.415752 C144.004902,36.4440855 143.657822,36.458252 143.346153,36.458252 C142.326148,36.458252 141.497407,36.2245044 140.859903,35.757002 C140.2224,35.2894997 139.846987,34.6449228 139.733653,33.823252 L139.606153,32.038252 C138.614482,33.5682597 137.339495,34.7157482 135.781153,35.480752 C134.222812,36.2457559 132.508663,36.628252 130.638653,36.628252 Z M149.407307,5.17825203 L155.102307,5.17825203 L155.102307,29.063252 C155.102307,29.8849228 155.300638,30.5224164 155.697307,30.975752 C156.093976,31.4290876 156.660637,31.655752 157.397307,31.655752 C157.737309,31.655752 158.112722,31.5990859 158.523557,31.485752 C158.934392,31.3724181 159.323972,31.2307529 159.692307,31.060752 L160.457307,35.395752 C159.692303,35.7640872 158.799812,36.0474177 157.779807,36.245752 C156.759802,36.4440864 155.838978,36.543252 155.017307,36.543252 C153.232298,36.543252 151.851062,36.0686734 150.873557,35.119502 C149.896052,34.1703306 149.407307,32.8174275 149.407307,31.060752 L149.407307,5.17825203 Z M162.22596,5.17825203 L167.92096,5.17825203 L167.92096,29.063252 C167.92096,29.8849228 168.119292,30.5224164 168.51596,30.975752 C168.912629,31.4290876 169.47929,31.655752 170.21596,31.655752 C170.555962,31.655752 170.931375,31.5990859 171.34221,31.485752 C171.753046,31.3724181 172.142625,31.2307529 172.51096,31.060752 L173.27596,35.395752 C172.510957,35.7640872 171.618466,36.0474177 170.59846,36.245752 C169.578455,36.4440864 168.657631,36.543252 167.83596,36.543252 C166.050952,36.543252 164.669715,36.0686734 163.69221,35.119502 C162.714706,34.1703306 162.22596,32.8174275 162.22596,31.060752 L162.22596,5.17825203 Z M185.414614,36.628252 C183.629605,36.628252 182.014621,36.3236717 180.569614,35.714502 C179.124607,35.1053323 177.892119,34.2765906 176.872114,33.228252 C175.852109,32.1799135 175.065867,30.9615923 174.513364,29.573252 C173.960861,28.1849118 173.684614,26.7257597 173.684614,25.195752 C173.684614,23.6090774 173.953778,22.114509 174.492114,20.712002 C175.03045,19.309495 175.809609,18.0770073 176.829614,17.014502 C177.849619,15.9519967 179.08919,15.1090885 180.548364,14.485752 C182.007538,13.8624156 183.643772,13.550752 185.457114,13.550752 C187.270456,13.550752 188.892524,13.8624156 190.323364,14.485752 C191.754204,15.1090885 192.972526,15.9449135 193.978364,16.993252 C194.984202,18.0415906 195.749195,19.2599118 196.273364,20.648252 C196.797533,22.0365923 197.059614,23.4815779 197.059614,24.983252 C197.059614,25.3515872 197.052531,25.7057503 197.038364,26.045752 C197.024197,26.3857537 196.988781,26.6690842 196.932114,26.895752 L179.719614,26.895752 C179.804614,27.7740898 180.017112,28.5532486 180.357114,29.233252 C180.697116,29.9132554 181.136278,30.494083 181.674614,30.975752 C182.21295,31.4574211 182.822111,31.8257508 183.502114,32.080752 C184.182117,32.3357533 184.890444,32.463252 185.627114,32.463252 C186.760453,32.463252 187.830026,32.1870048 188.835864,31.634502 C189.841702,31.0819993 190.528779,30.3524232 190.897114,29.445752 L195.784614,30.805752 C194.962943,32.5057605 193.65254,33.9011632 191.853364,34.992002 C190.054188,36.0828408 187.90796,36.628252 185.414614,36.628252 Z M191.194614,23.198252 C191.052947,21.526577 190.436703,20.1878404 189.345864,19.182002 C188.255025,18.1761637 186.930455,17.673252 185.372114,17.673252 C184.60711,17.673252 183.891701,17.807834 183.225864,18.077002 C182.560027,18.34617 181.972117,18.721583 181.462114,19.203252 C180.952111,19.6849211 180.534199,20.2657486 180.208364,20.945752 C179.882529,21.6257554 179.691281,22.3765813 179.634614,23.198252 L191.194614,23.198252 Z M213.065767,35.055752 C212.300764,35.3957537 211.365773,35.7357503 210.260767,36.075752 C209.155762,36.4157537 207.994107,36.585752 206.775767,36.585752 C205.98243,36.585752 205.238688,36.4865864 204.544517,36.288252 C203.850347,36.0899177 203.241187,35.7711709 202.717017,35.332002 C202.192848,34.8928332 201.774936,34.3261722 201.463267,33.632002 C201.151599,32.9378319 200.995767,32.0949237 200.995767,31.103252 L200.995767,18.310752 L198.063267,18.310752 L198.063267,13.933252 L200.995767,13.933252 L200.995767,6.70825203 L206.690767,6.70825203 L206.690767,13.933252 L211.365767,13.933252 L211.365767,18.310752 L206.690767,18.310752 L206.690767,29.190752 C206.690767,29.9840893 206.896182,30.5436671 207.307017,30.869502 C207.717853,31.195337 208.220765,31.358252 208.815767,31.358252 C209.41077,31.358252 209.991598,31.2590864 210.558267,31.060752 C211.124937,30.8624177 211.578266,30.6924194 211.918267,30.550752 L213.065767,35.055752 Z M246.863074,11.170752 L237.215574,11.170752 L237.215574,36.203252 L231.393074,36.203252 L231.393074,11.170752 L221.745574,11.170752 L221.745574,6.02825203 L246.863074,6.02825203 L246.863074,11.170752 Z M257.981728,18.863252 C256.253386,18.8915855 254.709235,19.2244988 253.349228,19.862002 C251.989221,20.4995052 251.011731,21.4557457 250.416728,22.730752 L250.416728,36.203252 L244.721728,36.203252 L244.721728,13.933252 L249.949228,13.933252 L249.949228,18.693252 C250.345897,17.9282482 250.813392,17.2411717 251.351728,16.632002 C251.890064,16.0228323 252.470892,15.4915876 253.094228,15.038252 C253.717564,14.5849164 254.347975,14.2378366 254.985478,13.997002 C255.622981,13.7561675 256.239225,13.635752 256.834228,13.635752 L257.535478,13.635752 C257.691312,13.635752 257.840061,13.6499186 257.981728,13.678252 L257.981728,18.863252 Z M266.295381,36.628252 C265.218709,36.628252 264.212886,36.4511705 263.277881,36.097002 C262.342877,35.7428336 261.535385,35.2470052 260.855381,34.609502 C260.175378,33.9719988 259.644133,33.2282563 259.261631,32.378252 C258.87913,31.5282478 258.687881,30.5932571 258.687881,29.573252 C258.687881,28.5249135 258.921629,27.5545065 259.389131,26.662002 C259.856634,25.7694976 260.508294,25.0115885 261.344131,24.388252 C262.179969,23.7649156 263.178709,23.2761705 264.340381,22.922002 C265.502054,22.5678336 266.777041,22.390752 268.165381,22.390752 C269.157053,22.390752 270.12746,22.4757512 271.076631,22.645752 C272.025803,22.8157529 272.868711,23.0565838 273.605381,23.368252 L273.605381,22.093252 C273.605381,20.6199113 273.187469,19.4865893 272.351631,18.693252 C271.515794,17.8999147 270.276223,17.503252 268.632881,17.503252 C267.442876,17.503252 266.28122,17.7157499 265.147881,18.140752 C264.014542,18.5657542 262.852887,19.1890813 261.662881,20.010752 L259.920381,16.398252 C262.782062,14.4999092 265.870365,13.550752 269.185381,13.550752 C272.387064,13.550752 274.873289,14.3369942 276.644131,15.909502 C278.414974,17.4820099 279.300381,19.7557372 279.300381,22.730752 L279.300381,29.658252 C279.300381,30.253255 279.40663,30.6782508 279.619131,30.933252 C279.831633,31.1882533 280.178712,31.3299186 280.660381,31.358252 L280.660381,36.203252 C279.697043,36.4015864 278.861218,36.500752 278.152881,36.500752 C277.076209,36.500752 276.247468,36.2599211 275.666631,35.778252 C275.085795,35.296583 274.724549,34.6590893 274.582881,33.865752 L274.455381,32.633252 C273.46371,33.9365919 272.259555,34.9282486 270.842881,35.608252 C269.426208,36.2882554 267.91039,36.628252 266.295381,36.628252 Z M267.910381,32.463252 C268.87372,32.463252 269.78746,32.2932537 270.651631,31.953252 C271.515802,31.6132503 272.188712,31.1599215 272.670381,30.593252 C273.293718,30.111583 273.605381,29.573255 273.605381,28.978252 L273.605381,26.428252 C272.925378,26.1732508 272.188719,25.9678361 271.395381,25.812002 C270.602044,25.6561679 269.837052,25.578252 269.100381,25.578252 C267.627041,25.578252 266.422886,25.9111654 265.487881,26.577002 C264.552877,27.2428387 264.085381,28.0857469 264.085381,29.105752 C264.085381,30.0690902 264.453711,30.8694988 265.190381,31.507002 C265.927052,32.1445052 266.833709,32.463252 267.910381,32.463252 Z M283.959035,36.203252 L283.959035,13.933252 L289.654035,13.933252 L289.654035,36.203252 L283.959035,36.203252 Z M283.959035,10.830752 L283.959035,5.17825203 L289.654035,5.17825203 L289.654035,10.830752 L283.959035,10.830752 Z M314.840188,36.203252 L309.145188,36.203252 L309.145188,23.708252 C309.145188,21.9232431 308.833525,20.6199228 308.210188,19.798252 C307.586852,18.9765813 306.722694,18.565752 305.617688,18.565752 C305.051019,18.565752 304.470191,18.6790842 303.875188,18.905752 C303.280185,19.1324198 302.720608,19.4511666 302.196438,19.862002 C301.672269,20.2728374 301.197691,20.7615825 300.772688,21.328252 C300.347686,21.8949215 300.036023,22.5182486 299.837688,23.198252 L299.837688,36.203252 L294.142688,36.203252 L294.142688,13.933252 L299.285188,13.933252 L299.285188,18.055752 C300.106859,16.6390783 301.296847,15.5340893 302.855188,14.740752 C304.41353,13.9474147 306.170179,13.550752 308.125188,13.550752 C309.513529,13.550752 310.646851,13.8057495 311.525188,14.315752 C312.403526,14.8257546 313.083519,15.4915813 313.565188,16.313252 C314.046858,17.1349228 314.379771,18.0699135 314.563938,19.118252 C314.748106,20.1665906 314.840188,21.22908 314.840188,22.305752 L314.840188,36.203252 Z" id="Bullet-Train" fill="#333333"></path>
                    <g id="Group-4" transform="translate(0.000000, 0.032520)" stroke-width="3.12">
                        <path d="M78.1984701,15.911877 C76.8358635,13.3855151 71.2660861,13.3855151 61.489138,15.911877 C60.8862315,16.067668 58.2274783,10.8210068 58.5028921,10.1028941 C59.3000605,8.02436095 70.9617359,8.95194958 73.3279373,9.5406485 C75.3124481,10.0343847 72.8367501,8.59783298 65.9008435,5.23099327 L65.9008445,5.23099127 C64.5879927,4.59370449 63.5607425,3.48873085 63.0207317,2.13296442 C61.8498413,-0.806706249 57.2717066,-0.707766584 49.2863277,2.42978342 C40.0568173,6.05616748 24.3651045,12.1310053 2.21118955,20.6542969 L2.2111908,20.6543002 C1.41837968,20.959319 0.831039408,21.6411565 0.64679118,22.4703962 L0.117619598,24.8520207 C0.0241830156,25.2725475 0.289342063,25.6891972 0.709868908,25.7826338 C0.835313319,25.8105062 0.965700928,25.8069538 1.08944159,25.7722923 L16.626839,21.4200487 C17.0416544,21.3038531 17.4721239,21.5459323 17.5883195,21.9607476 C17.6075029,22.0292319 17.6172298,22.1000181 17.6172298,22.1711384 L17.6172298,25.3361788 C17.6172298,25.7955986 17.2965147,26.192685 16.8473799,26.2893517 L0.46199014,29.8159569 C0.14613645,29.8839376 -0.0548042606,30.1950969 0.0131765008,30.5109506 C0.016940071,30.528437 0.0215036494,30.5457416 0.0268528522,30.5628098 L1.53883621,35.3872408 C1.89568285,36.5258657 2.95066362,37.300811 4.14389716,37.300811 L71.3317797,37.3008185 C77.6008535,37.3008185 82.7503657,32.3487354 82.9953221,26.0844492 C82.9953221,26.0844492 82.9953221,26.0844492 82.9953221,26.0844492 C83.0983539,23.4496112 81.4994032,20.0587538 78.1984701,15.911877 Z" id="Path-8" stroke="url(#linearGradient-1)"></path>
                        <path d="M71.3372365,32.6137999 C76.314185,30.9409289 78.3044627,27.9464483 77.3080696,23.630358" id="Path-9" stroke="url(#linearGradient-1)" stroke-linecap="round"></path>
                        <path d="M23.4366039,24.36696 L45.6723475,19.5037764 C47.0073433,19.211799 48.1914521,18.4462778 49.0056868,17.3487869 C50.1898806,15.7526356 50.7651962,14.4311238 50.7316335,13.3842516 C50.6897508,12.0778634 49.7000188,11.2092485 47.7624374,10.7784067 L47.7624347,10.778419 C47.4748826,10.7144787 47.1751031,10.7332621 46.8977814,10.8325959 L25.7582948,18.4045409 C24.2329834,18.9508916 23.1464754,20.3111096 22.9506788,21.9194435 L22.7309002,23.7247735 C22.6918563,24.0454923 22.9201989,24.3371375 23.2409176,24.3761814 C23.306201,24.3841289 23.3723572,24.3810114 23.4366039,24.36696 Z" id="Path-10" stroke="url(#linearGradient-1)"></path>
                        <path d="M63.5620609,14.2563317 L67.8384075,9.95990295" id="Path-7" stroke="#2CB6AC" stroke-linecap="round"></path>
                        <path d="M69.7808447,14.0934891 L73.8951099,9.95990295" id="Path-7-Copy" stroke="#2BADA3" stroke-linecap="round"></path>
                    </g>
                </g>
            </g>
        </g>
    </g>
</svg>
